X: 7864
T: Compliments To Buddy MacMaster
R: reel
M: 4/4
K: Fmajor
|:F2 AF cFAc|~B2 ba gfgb|afeg fdcA|dBcA EFGB|
AFcF ABcA|~B2 ba gfgb|afeg fdcA|1 dBcA ~F3C:|2 dBcA F2 cA||
|:CDEF GABd|cAfd cAFA|bgaf gefd|ecd=B c2 GB|
cGAc bgeg|afcf dBGB|AFcB GEGB|1 AFGE F2 cA:|2 AFGE ~F3C||

